X: 16873
T: Hatchlings, The
R: jig
M: 6/8
K: Edorian
|:E/F/GA Bgf|eEF G2F|E/F/GA BGA|Bcd DGF|
E/F/GA B2A|Bgf efg|A ~B2 AFG|1 AGF E2D:|2 AGF E3||
|:gab agf|gfe Bef|g2b agf|edc def|
[1 gab agf|gef gab|A~B2 AFG|AGF Eef:|
[2 ~g3 e/f/ge|fec def|A~B2 AFG|AGF E3||

